X:8
T:Dansen P\aa M\aakeskjaer
O:Norway
A:Tekst av E. Almquist
C:Melodi av G. Wahlberg
L:1/4
M:3/4
Q:1/4=170
R:Waltz
K:G
% %rightmargin 11.5cm
"Intro"\
G | "G"B2 A | G2 z
% %rightmargin 2.78cm
%P:Verse
G |: "G"D G A | B A G | "C"A2 G | E2 G | "D7"F2 c | B2 A | "G"B3 | G3 |
"G"D G A | B A G | "C"A2 G | E2 G | "D7"F2 c | B2 A | "G"G3- | G z2 :|
%P:Chorus
"G"B A B | c2 B | "Am"A3 | E3 | "D7"A G A | B2 A | "G"G3 | D3 |
"G"G F G | A G E | "D7"G z F | F3 | A A3/ A/2 | A B c | "G"c z B | B3 |
"G"B B B | B c B | "Am"A3 | E3 | "D7"A A A | A B A | "G"G3 | D3 |
"G"G F G | A G F | "Am"E A B | "C"c B A | "G"B3 | "D7"A3 | "G"G3- | G z2 |]
% %multicol start
% %rightmargin 11.5cm
W:1. Dansen den gaar uptaa Maakeskjaer i lyse somer netter
W:guttene svinger den de har kjaer i nattens friske vind! Det
W:blaaser saa herlig fra havet der, det skvulper og det skvetter!
W:Badet i lsligger Maakeskjaer i ildog maaneskinn!
W:
W:2. Blodet blir heftig og dansen vill og alles \oyne blanke;
W:skyggene flakker og baalets ild til tramp og trekkspillaat!
W:Langt klinger lokkende dans og spil og stjeler hver en tanke:
W:Maakeskjaer stevener hver ungdom til i blomsters mykket baat.
W:
W:3. Trekkspillet laater den hele natt til leken og til dansen!
W:Maanen den blekner og gaar for latt til ro blant fjer ne traer.
W:Ungdommen stanser og ser betatt mot sol skinnet og glansen,
W:takker for gledene de har hatt i natt paa Maakeskjaer:
W:
% %multicol new
% %leftmargin 11.5cm
W:Chorus:
W:Smaab\olger kruser sj\oen,
W:blinker som s\olv om \oen,
W:trekkspillet laater fra baatene,
W:allting for hekses av laatene!
W:\Oynene straaler og kinnen
W:blusser saa varmt imot vinden.
W:Aldri for glemmer jeg nettene der
W:uptaa Maaeskjaer!
% %multicol end

